/* XPM */
static char *ruins_frame[] = {
/* columns rows colors chars-per-pixel */
"64 64 15 1 ",
"  c #392C46",
". c #5C195D",
"X c #250F2D",
"o c #9D47A1",
"O c #9C3DA0",
"+ c #8C368D",
"@ c #A04B9E",
"# c #984499",
"$ c #A34CA4",
"% c #772777",
"& c #812B7D",
"* c #7A3B85",
"= c #4E4C65",
"- c #A39CD6",
"; c #FFFFFF",
/* pixels */
" .  . .X. . . .. .  . .  . ... . X  . ... . .. .  ...  ... . . .",
"oO+@#+O#$o%++oo#o$$$##O$o##+#$O++Oo++++###+++#$oO@#$+&&#@###O+$&",
"+##$#o$o$+&+O$o++O###++$$$O#$#++&Oo$O$$@##@OOOOO+#+@+&+###@@@##+",
"+&&++++O#+&%%&%+&+OO++%+%&++#@++%+*%%%%+##++&%&&&@@#+&%+%+%%+&#@",
"&&%%&+++o++++&&%%%&%+&%+%+++O$O+++&+&%%%&&&&%%%++@##+&%+++%%%&%+",
"&&+++##o##+OOoO%%%&&+&++%+++###O++OO+%%*&&+++&++$#O+++O+o+%&++%&",
"#+++###o##@oo$O&*+OO+#@#++O#@#+OOOOOO%&+O++#+++#$++OO$@oO++&+++#",
"+O+&+O++O+#O#OO%&+OO##@@&+++#+OoO+Oo+%%+oo##O&%+oOOOOoO##+&%O+$O",
"oo++&*++&&%*+&++*O**++o#+++&++%&&+&++++*+++Oo+&&+%&&%%++*++%+**O",
"ooOOO+##&%+OO++++OOO#o#+#o##++&++++OOooooo++#o#O++++%&#+#++++Ooo",
"o#o#o#oo+&+$ooO##O####oooooo$+++Ooo+###OO##oooo##oo+%+$#O#OOo#OO",
"oo#Ooooo+%+o#o######O+$$++O#$+&&#o$OOOOOOO#o$++#ooo+%+oO##oo$o$o",
"OO*+####+&*O+O#$o##o#+oo&++#o+*++OoOo#o#oo#oo++*#oo+&+o+ooo$$$o$",
"%.*+#oo#++%%&&O++++++&%&++##o#+*%%%++++++++%%*+++++#&&+%%+++++++",
"+Oooooooo##+*&%%%%%%&&+++O#o#o##OO+%%%%%%%+O#OO###o#ooo#%%..%+%%",
"OoO+#O++ooo##OO%&&+&+##OO@$$$ooO#+++&+%++*OO##ooO+OO+OO++++%%O++",
"oooooooo##O##Oo+*++O+#OOOOOOo##O##++O+++O####o#oooooooo$oO+++OOO",
"######OO##O#O#OO+&OOOO###OOOO@#o##O#$#&+$oooo#o##@OOoOoO$$$+&$oo",
"#O#o##O#$$$@@oOO+%OO#@$$@Oo#o#o#@@O#oO%&$oooo###OO@oooOOo$$+&$+#",
"oo&&&**%&%&%&&*+++###@++++%+&+&&++++++++#+###++++&&&&&&&+*+++OO#",
"o$+&&&&&&&&&&++++@###$@#+++++%%%%%&++O++++##O++++&&&&&&%%++++&@@",
"O*$@O@&@&&++OOo$++O#*=.&=%=.% .%*#+o$o#@+O+@$O+O+##%%%+$#o#$o#O$",
"o##O@@@$@&++O+Oooo$# XXXXXXX  XX ...%....%%@#OO@+O+++++##O####@$",
"ooOO@@@$$#+++##$$$@$.X=#=****=* XXXX XXXXX.@+OO@@#OO++++++###@&O",
"#++++O+@@&&&++O++++# X--*======o---------X.#++++#o+o+%%+O++++#$@",
"+%%&+++O&&&&&%%&..&O.X--=======----------X.%%&.%+++$o+%++&&&&&#+",
"%%&&+OO@$#&&+*&+%%%%XX-- ========-=-=----XX%+%%++++#O++++&&&&&&&",
"&O&&@OOOOO@$$#@%%*++ X--==  ===        --X =&&&@@O@++OO$@+&&&&&@",
"$$&&&#O@$+@$@@@+&&+#=X--== X =  =  =  =--X==&&+@$@@$O@$+@#+++O&$",
"OO&&&&&&&&&&&%%%%&&+XX=-===  =         --X *++&&&&&%%&&%&&&.&&.&",
"O@+&+O&&+&&@&++#&+##.X=-=== ===    ======X #+&++&+++&&+&++&++O&@",
"OO@O@@OO+&@$$@#@#@@@ X=o-==  ==========-=X %@#++####&+@#@OO+#O$$",
"++$#@@#+&&&$@O+@++O+ X --@=   ===  ====-=XX####@$+#+&&OOO+#OOO&@",
"OO@O@@O@&&&$$@#$@oo+ X --==   ===   =====X ##&##@##O&+$$@$@$oO$@",
"$$&&&O+&&&&$@#+OOO@+ X=@====   ==   ===-=X.#O&%+#OO+%&OOOooO#OO+",
"&+O@&OO&@OO&&&&+%&+& X=@=====    ======= XX++*#@O$#+++*+%%++&*O%",
"OOO@O#@OO@@OO&&&%&+&XX ===  =     =  === X.+O##$$o#OO+O+**&%%&*%",
"O@OO@@@@OO@O##++%&&& X ==        =  ==== XX*oo#$$##o#ooo#+&&&o*#",
"&&@@@$O$&OO@@#+#&&#@ X ==XX      =  ==== X #+#+oO###oo$ooOO+&o#o",
"@&O@O@O@O@@@@+#O&&+@ X===   ==  ======== X.++#+oOO##oooo$OO&%#Oo",
"##&+OO##+O+++$$$+#@@&X   =    ===========X *@@+@O+OO+OO+OOo++$+$",
"O@&+&%%&%%++%+&&&O@@.XXXXXXXXXXX === ===XX.*@&&&&+%%%%%&&&&*O#O$",
"#@@+++++%%++++&&&#O@.XXXXX XX XXXXXXXXXXXX=+@+++&++%%&++++*+Oooo",
"##O#O+++%%+O+@&@@@@&. &&&&%&&&...XX.XXXXXX&@@OO+O++&&+##OOOooOO*",
"#O@O$ooO+&OOO@O@@$$&&&@@###@@@+%O#######&.&$$$$O$oo%%O++@@$@@o+%",
"+#+++O#O&&&&&O&&&&&&.+#+###++@%%+%%&%%%%&&&@OOOOOOO&%++%&&&&&%&&",
"&#&&+&&++&&+&&&&&&&&&&&&%%%&&#+%++&+%&++#&&&&&&%*&+++++&+&&&&*++",
"&&&&&&&&@+@$@+&+OOO$O+&&+%+&&O#@$$++%+$#++++%%%%%%+O##O+&#++O@@@",
"O+&%+O@O$@O#&O&&&@$@OOOO%.+#O$OO@$O+%*OO++++O%%%Oo+++OO$O+&+O+@@",
"$$#.&##O#&#@@$&++O$$O$++..+#$@O@OOo$O++oo+##O%.&$OooOo@OO+++O$#@",
"@$#&&&+###@@@@+&&&$&+O+O++O$$$@@&#@#+&+#$o+OO%%+$+++Oo##+++&+@@&",
"&&&&&&&&..&..&&&&....++++%%+&.....%*+%%....%*%%%%&&....&&&&&&...",
"&.&.....&#$&&&&.&+O...&%......&@&+O%%%%%%%..%%%.....+++@&#&&&&..",
"++OO++#&&&@O@++O+++%.&@+O++++.&@@OO+OO&O&.%++++++%+.+O+@#+&&@@&.",
"$O$$$@$@.&@@@@@@@&+..@#####+@.&@+&@&@$@@+%&#@+#@&@@.+@+@@++@@@&.",
"@#+$O+@@%@@@@@&@@#@&.&@@#+++@.&@+@@+@@@@&.%&@##@@+@.&@@@@@@@@@..",
"#+$%%#@&&&+&%......*&#&+&*#@@.&&&.......+*+++&&@&&&.&&&.......@@",
"%%......&&&%...&&.&&&&&...%&&..&&%....&.&&%%..%.&.&.&&.&X..&&.&&",
"&........%&&..X&@#&*&&&% X. .%.&.....+@+&&&&&........&&...&@+&.+",
"O++..&&=&&&&&.X&++##@@##...&&&&&&&&X.&@@@+#+#...&&&&&&&&.X&#@@+@",
"@#$%.*+*&@&&&..&&+&@@@+@&&.&@@&&@&&..&+&@+@##+.&&@&+&&&&..&&&@@&",
"...........................................&....................",
"......&............. ..&.....%........X................%........",
"   .XXX .X.  X. X.XX X XX.X .XX. . X..X.X  X   X.X..   X..  X XX"
};
