/* XPM */
static char *ruins_vine[] = {
/* columns rows colors chars-per-pixel */
"64 64 17 1 ",
"  c #582257",
". c #3A564C",
"X c #722A70",
"o c #080D0E",
"O c #202128",
"+ c #18522E",
"@ c #994599",
"# c #A34CA4",
"$ c #A24A9D",
"% c #8C378C",
"& c #40965C",
"* c #84467A",
"= c #9D47A1",
"- c #7C3083",
"; c #A13C9B",
": c #822E7C",
"> c #FFFFFF",
/* pixels */
"        .                 .X oO+++oOooO   .     .    .       .  ",
"@@@#######$%@#$##$@@#@@@$##. o+&&+oO O *$$#$$$$@@$####%@@@@###=@",
"#=@=#==@@#@%-==###$#@@@@#;XOooo++o.OOOO:@@@@@$=@$$$###%%@@@@=@@@",
"@%%%%%%#==@X%%%%%%%%@#%%%X o+&++o+O&+oo $#=@%%--%%@###-%%%%%%%$#",
"-%%%-%%===%%%@%%XX%%%*:%:*X ++++&+O&&++O-%%X%%%-%%@=$#%%%%%X--%%",
"%%%%%;=@=@@@;@#@-%%%--%%::@$.+&&&&++&&&OX%%%%%%%%@@@@@$@=;;%%%%%",
"=@=%%@#@@@===@#@%%;@@@@$%:@$ &&&+o.++++ ==@@@@@@$@=@@;#=@=%%%;@;",
"=#=%%@======#@@@%%%$#$@$@%%*Oo++oo.+oOO*====@@%%@@@$@@##@=@%%;;;",
"%@=%%%%%%%-%%@%%-%%%%;=#$@OOO oOOOOoOoX@%@%===%%%%%%%:%%%%%%%%%;",
"@@;==@@%@%-%;==@@%;@=### .OO+O O O ++oO @@=====%@$@@%%%===@=@#$$",
"==$======@-%#=======;;#Xoo&..o.X XO&&&+o=====#=@#=@@%%@====###;=",
"@##=%@=##%%%#=====#=##- ++&++OO **O&&&oO==#====@#=@@;%@@=#=##;==",
"@##%%%=#=@%%===#######* .&+O++oo  o..O.:====@@=%==@@@%@@===##;##",
"%%-%;@%;=@%%%X%%%%%%;%%- oO+&.oOO.OoOX*-@@%%-%%%======---%%%%;;%",
"%@@=@=====@==%%:X%X%--==%-XOOO OooOO+O X-%%@%=;=======@=@%%--%%%",
"=@=====;;;;;;;@%%%%@@@=;==@-  O . O&&+O %%%@;;======@@=@%%%--;;%",
"=======#####===@@%%#===@#=@# Oo @*o&&&+O%@%==#=##=====###=;%;@#$",
"#======##===;####%%#=#=@#%X- oo.  O++.+O==$==#============@@@;##",
"##===@=;#=#===##=;%#%===@X oO&&.+o.ooooO;=;==###=======@=@@==%##",
"===%%@%%%%%%%%-%%@%=====@@@ O++++&.O*%@%==;=;;=%%%%%--%-%-%%@;=;",
"=@@%%%%%%X-%-%-%%@@@@###@-X:@ooo++&O -====;;;;;%-----%%%%:%@=@#;",
"@##;=#@@%%-%;==###=@@#@=#@$@@oo++oOOOX@============%%-%@##$##;$#",
"-@==;#;@;;%%%@@=======#====X$o+&.+OOOO %=;===;==@===;%%%==@==#$#",
"X@@#$##==#=%%@=====#%@=@##% Oo++&+OO.OOX=====##====#==-%@@@==#=#",
" @@;%%;==#=%-=%@%%%;##@;@  +&&++oo.OOoOX###=;%%%%%@@@;%%%;%%%;##",
" *%-X%%%=#=%-%%%-%-%@@@%XX OO&++++o&&oo =%;%%---%;@@==%-%%%%X%%;",
" ----%%%=#@%%=%%--%%%%%X%%%  +++&&o&&&.O-%%%-%%%%%@@==;%%%%%X:%%",
" X*:%#$==@@@=#$;%%%%@$%%%:%#.+&&&+.++&+O:*%%@@@@===$@@#$$@@%:;%%",
" @%%@$##==@##$;;%%@$:#$$;:%# +&+++&+o+O $$$$$-X%$#@$###;;@$;:$$$",
" @@%%%%%-%X-%%:::::%X:;#;* OOOoOOOoOOO *:::@@=@X%%X%XX%X-%%::%:%",
" @@@%%%%@%-%;;%%%%%;%;$$@XOoo OOO  o+oO*@%%@==@%@@@%%%%%%;;;%%%%",
" *$@@@@@#=-==$;$$$$$##$$O+O..O  O O.++o $;@@#=%@@=#=%:%;=====@@@",
".@$@@=#;$@-%=;=;$;;@;$$XO+..+O X-@O&&&oo$$$###@%@==@%-%%;;===#==",
" @$%@@#@#@-=#######$$;* &&&O++oO  O.&&O @@@@##@@%=#=;%;##====$==",
"X$;%%%=@=@--==;$$==@=@@ +&++++OOOOOO.O *=%===;%%%@==@-%===;;;;;@",
" -@%@===@@%%%%%%%%%%@-%-X.OO+OOoOOOoOO:%%-%%%;;=====;==%%-%-%%%%",
" *@==##==@===%%%::%%%%%@$*X OO  OOO+OOO -%%%;=#=========@%%--%%%",
" @==@##=======@%%%%=@@@@=#=;X.O *@O&&&+ =%=;====;=========%%%%%;",
" @;@@##====###==;%%#;#=;=;%@ oo *Xo&&&+O========#===;====##@@;;=",
" @;@@#==@==####=@%-=;#===%XOO++. O+oo++o@====#========#=###=@%;=",
"X=#=====;=;;=;@==%%#==#==@- o&+&+++ %#%X====@@@=@;@;==@;%%=@=%==",
"X*@-%--%%------%%%==@====-X  ooo+&.O ;;#@=#=@@%X%%%::%%X%%%%=@;=",
"X@@;%%%%---%;%%%%=======#=%%@o+oo+OOO%$#@===@@@%%;%%%X-%%%%%=@@=",
"X@#;===;%%-;=@=#@==#=%=###=#;o++++OOo *#=@%%======@%%%@@@@@====@",
"*######==-%;=###==@$%-;#=#%%:o+&&&oOOOO%=%-%;@@===###;%=@@=#=#=%",
"%;%=;@;==-%%%%X%-%%%-%=;;- O&+++ooOOOOO %--%;#======@-%%%-%%%-%-",
"%;%%%-%%=%;%=%%%%%%%%;%--X +&&++oOO.+oo -%%%%@%%%=%%@%%%%%-%%%%%",
"%%-%-X--%==@@@%@;@@=#;%%-XXOO+++&+o&&++ @@$;%-X--%%%%$@@$;%%#$@@",
"%;;%X%===%@;==;%%%;;###@=XX* o+&&&++&&.O@@;$;;-:-;=###@;##%%;==;",
";@;:X%#===###==%%%=#;##;@%%@ +&&++&++.+O@@@$;$%%%;;@=@#$;#$;%=$#",
"==;--@#%@@;==@@@%%@=#%@;;X%@OO&+++&+o+OX$$@$@@X:%%@@%@#$%@%%X@@@",
"X------%X XXX-%%%%:X X::@X OO.+oOOOoOo :XX  -@@XX%-  XXXX*@%XXXX",
" X---XXX X-;%%@%%:%@% XX.OOOOOOOoO ooo  @%X X%:XX    -@@%%%-X%;%",
":@=%;%%--X@=;=;%%%%#% **OO..+OO XXO&&.Oo;;X :@%;=%%XX@=$$$$@%;#%",
"%%#@=$;$*X%;@#;;;===--*..+&++oO *$O+&&oO@@X:=#@;$$$* %;;##;@$;$*",
"-%#@;##;::%$$##=$#=# X@ .&&O++OO XO&&+OX#%XX%#$;;;@*X%###$@##;$:",
"%%%%@@%%: :%X   X  X#%@@ oo+&.OooOOoOO  XXX%@@@;;::* X:XXX   :: ",
":XXXXX:::::::   -%:X-%:: OOooOOOoOO+OO  XX::XXX::::: X:X     : :",
"@%X   X : :::X  -;;%X%:XX X OOO  OO&++O X:XXXX  X  :XXXXX   ::::",
"@@@% XX*:*:::%X -==#;;%-X X: OO * o&&&+OXXXXXXX  X XXX :X   X: :",
"#@@@XX%$;;;*;-  -%%#=%--X   OooO. o.&&.O:XX:XXXX XXXXXXXX:  X:::",
"XXX X:X  :: : :     -      oo&&&+o+O  O             X XXX:  :   ",
"       ::  X::  ::  X  OOOOOO+++...OX   OOOoOOOO   X::X  * X:OOO",
"      .O    O    O  OOoooooO ooo+&.OO OoooooooooOOOO      O Oooo"
};
