/* XPM */
static char *ruins_water[] = {
/* columns rows colors chars-per-pixel */
"64 64 10 1 ",
"  c #41628F",
". c #306790",
"X c #51B6D7",
"o c #5DC8E4",
"O c #A1E1F4",
"+ c #3CA1CB",
"@ c #3A88AC",
"# c #2A557D",
"$ c #4591B3",
"% c #FFFFFF",
/* pixels */
"  ...XXoooXXoOOOOOOOOOOOOOOOOOOOOOOOOOOOOOOOOOOOOOOOOOooXoo+++@@",
"  ...XXoooXXoOOOOOOOOOOOOOOOOOOOOOOOOOOOOOOOOOOOOOOOOOooXoo+++@@",
"###..XXoooXXoOOOOOOOOOOOOOOOOOOOOOOOOOOOOOOOOOOOOOOOOOooooo++@..",
"...$$XXooooooOOOOOOOOOOOOOOOOOOOOOOOOOOOOOOOOOOOOOOO$$ooXooXX+..",
"...$$XXooooooOOOOOOOOOOOOOOOOOOOOOOOOOOOOOOOOOOOOOOO$$ooXooXX+..",
"  .++ooooooooXXOOOOOOOOOOOOOOOOOOOOOOOOOOOOOOOOOOOOOXXoo+oooo+@@",
"  .++ooooooooXXOOOOOOOOOOOOOOOOOOOOOOOOOOOOOOOOOOOOOXXoo+oooo+@@",
"++XooXXooooooOOOOOOOOOOOOOOOOOOOOOOOOOOOOOOOOOOOOooXXXooXXXoooXX",
"+++oooooooXX+OOOOOOOOOOOOOOOOOOOOOOOOOOOOOOOOOOOOOOOooXXXooXXXXX",
"+++oooooooXX+OOOOOOOOOOOOOOOOOOOOOOOOOOOOOOOOOOOOOOOooXXXooXXXXX",
"@@+XXooooooooOOOOOOOOOOOOOOOOOOOOOOOOOOOOOOOOOOOOOOOooooXooooXXX",
"@@+XXooooooooOOOOOOOOOOOOOOOOOOOOOOOOOOOOOOOOOOOOOOOooooXooooXXX",
"##@ooooooooooOOOOOOOOOOOOOOOOOOOOOOOOOOOOOOOOOOOOOOOOOoooooooX$$",
"..@++XXXXXoooOOOOOOOOOOOOOOOOOOOOOOOOOOOOOOOOOOOOOOOOOOOoooooX@@",
"..@++XXXXXoooOOOOOOOOOOOOOOOOOOOOOOOOOOOOOOOOOOOOOOOOOOOoooooX@@",
"..@$$XXoooOOOOOOOOOOOOOOOOOOOOOOOOOOOOOOOOOOOOOOOOOOOOooooooo@@@",
"..@$$XXoooOOOOOOOOOOOOOOOOOOOOOOOOOOOOOOOOOOOOOOOOOOOOooooooo@@@",
"###@@++oOOOOOOOOOOOOOOOOOOOOOOOOOOOOOOOOOOOOOOOOOOOOOOOOOooXX@..",
"###@@++oOOOOOOOOOOOOOOOOOOOOOOOOOOOOOOOOOOOOOOOOOOOOOOOOOooXX@..",
"###@@XXoooOOOOOOOOOOOOOOOOOOOOOOOOOOOOOOOOOOOOOOOOOOOOOOoooXX@..",
"###@@$$oOOOOOOOOOOOOOOOOOOOOOOOOOOOOOOOOOOOOOOOOOOOOOOOOoooXX@..",
"###@@$$oOOOOOOOOOOOOOOOOOOOOOOOOOOOOOOOOOOOOOOOOOOOOOOOOoooXX@..",
"  .@@XXoooOOOOOOOOOOOOOOOOOOOOOOOOOOOOOOOOOOOOOOOOOOOOOOOoooo@@@",
"  .@@XXoooOOOOOOOOOOOOOOOOOOOOOOOOOOOOOOOOOOOOOOOOOOOOOOOoooo@@@",
"##@$$XXoooOOOOOOOOOOOOOOOOOOOOOOOOOOOOOOOOOOOOOOOOOOOOoooooXX+@@",
"##@XXXXXoooooOOOOOOOOOOOOOOOOOOOOOOOOOOOOOOOOOOOOOOOOOoooooXX+@@",
"##@XXXXXoooooOOOOOOOOOOOOOOOOOOOOOOOOOOOOOOOOOOOOOOOOOoooooXX+@@",
"..+XXooXXX$$OOOOOOOOOOOOOOOOOOOOOOOOOOOOOOOOOOOOOOOOOOoooooXXo++",
"..+XXooXXX$$OOOOOOOOOOOOOOOOOOOOOOOOOOOOOOOOOOOOOOOOOOoooooXXo++",
"@@+oooooXXoooOOOOOOOOOOOOOOOOOOOOOOOOOOOOOOOOOOOOOOO$$XXoXXXXoXX",
"++oooooooooooOOOOOOOOOOOOOOOOOOOOOOOOOOOOOOOOOOOOOOOOOXXoooXXooo",
"++oooooooooooOOOOOOOOOOOOOOOOOOOOOOOOOOOOOOOOOOOOOOOOOXXoooXXooo",
"++XooXXXXXXXoOOOOOOOOOOOOOOOOOOOOOOOOOOOOOOOOOOOOOOO$$ooXXXXXXoo",
"++XooXXXXXXXoOOOOOOOOOOOOOOOOOOOOOOOOOOOOOOOOOOOOOOO$$ooXXXXXXoo",
"@@XoooooXXoooOOOOOOOOOOOOOOOOOOOOOOOOOOOOOOOOOOOOOOOOOoooXXXXoXX",
"..$XXoooooooOOOOOOOOOOOOOOOOOOOOOOOOOOOOOOOOOOOOOOOOOOOOoooXXX@@",
"..$XXoooooooOOOOOOOOOOOOOOOOOOOOOOOOOOOOOOOOOOOOOOOOOOOOoooXXX@@",
"##@XXXXoooOOOOOOOOOOOOOOOOOOOOOOOOOOOOOOOOOOOOOOOOOOOOOOoXXooX@@",
"##@XXXXoooOOOOOOOOOOOOOOOOOOOOOOOOOOOOOOOOOOOOOOOOOOOOOOoXXooX@@",
"##$XXXX$XXOOOOOOOOOOOOOOOOOOOOOOOOOOOOOOOOOOOOOOOOOOOOOOoXXXXX++",
"..@$$oooooOOOOOOOOOOOOOOOOOOOOOOOOOOOOOOOOOOOOOOOOOOOOoooooXXX@@",
"..@$$oooooOOOOOOOOOOOOOOOOOOOOOOOOOOOOOOOOOOOOOOOOOOOOoooooXXX@@",
"..#@@XXoXXooOOOOOOOOOOOOOOOOOOOOOOOOOOOOOOOOOOOOOOOO$$oooooXX+..",
"..#@@XXoXXooOOOOOOOOOOOOOOOOOOOOOOOOOOOOOOOOOOOOOOOO$$oooooXX+..",
"..#..XXoooXXoOOOOOOOOOOOOOOOOOOOOOOOOOOOOOOOOOOOOOOO$$XXooooo...",
"  #..XXooooooOOOOOOOOOOOOOOOOOOOOOOOOOOOOOOOOOOOOOOOOOoo+oooo+..",
"  #..XXooooooOOOOOOOOOOOOOOOOOOOOOOOOOOOOOOOOOOOOOOOOOoo+oooo+..",
"...++XXXXXoooOOOOOOOOOOOOOOOOOOOOOOOOOOOOOOOOOOOOOO$XXoooXX++$@@",
"...++XXXXXoooOOOOOOOOOOOOOOOOOOOOOOOOOOOOOOOOOOOOOO$XXoooXX++$@@",
"@@+++oooXXXXo$$OOOOOOOOOOOOOOOOOOOOOOOOOOOOOOOOOOOOOXXXXoooooX$$",
"@@+++oooXXXXo$$OOOOOOOOOOOOOOOOOOOOOOOOOOOOOOOOOOOOOXXXXoooooX$$",
"@@+oooooXXXXX  OOOOOOOOOOOOOOOOOOOOOOOOOOOOOOOOOOOOXXXXXooooooXX",
"@@XooooooooooOOOOOOOOOOOOOOOOOOOOOOOOOOOOOOOOOOOOOOOoooooooXXXoo",
"@@XooooooooooOOOOOOOOOOOOOOOOOOOOOOOOOOOOOOOOOOOOOOOoooooooXXXoo",
"..XooXXoXXoooOOOOOOOOOOOOOOOOOOOOOOOOOOOOOOOOOOOOOOOOOOOoXXXXXXX",
"..XooXXoXXoooOOOOOOOOOOOOOOOOOOOOOOOOOOOOOOOOOOOOOOOOOOOoXXXXXXX",
"..@ooooXXXooOOOOOOOOOOOOOOOOOOOOOOOOOOOOOOOOOOOOOOOOOOOOXXXooX$$",
"##@++oooooOOOOOOOOOOOOOOOOOOOOOOOOOOOOOOOOOOOOOOOOOOOOOOoXXooX@@",
"##@++oooooOOOOOOOOOOOOOOOOOOOOOOOOOOOOOOOOOOOOOOOOOOOOOOoXXooX@@",
"##.@@XXoooooOOOOOOOOOOOOOOOOOOOOOOOOOOOOOOOOOOOOOOOOOOOOoooXX$@@",
"##.@@XXoooooOOOOOOOOOOOOOOOOOOOOOOOOOOOOOOOOOOOOOOOOOOOOoooXX$@@",
"##...XXoooOOOOOOOOOOOOOOOOOOOOOOOOOOOOOOOOOOOOOOOOOOOOOOooooo@##",
"##...XXoooOOOOOOOOOOOOOOOOOOOOOOOOOOOOOOOOOOOOOOOOOOOOOOooooo@##",
"##...XXoooOOOOOOOOOOOOOOOOOOOOOOOOOOOOOOOOOOOOOOOOOOOOOOooooo@##"
};
