/* XPM */
static char *ruins_wall[] = {
/* columns rows colors chars-per-pixel */
"64 64 7 1 ",
"  c #3D1639",
". c #6B1F6B",
"X c #9B469D",
"o c #7E2B80",
"O c #8C378D",
"+ c #812C7D",
"@ c #FFFFFF",
/* pixels */
" .  . .  .  .. . .   .. .   ..   .. .  . . . .  .   . .  . . .  ",
".XXXXXXXXXXoXXXOOXXXXXXXXXXXXXXXoOXXXXXXXXXXXXXXOXXXXXoOXXXXXXXX",
"+XXXXXXXXXOoXXXXXXXXOXXXXXXXXXXOoOXXXXXXXOXXOXXXXXXXXXooXXXOOXXX",
".+o.OOOXXXoooOOooooXXOOoOooOOXXXoooooo.OOOXOOooOooXXXOoooooooXXO",
".....oXXOOOoOoooooooooooo.ooOXXXooOOOoooooooooooOOOXXXOOoooooooo",
".+OoOOXXOXXOXOXOooOoooooOooOXXXOXXXXXooooOOoooooXXXXXXXXXOXooooo",
"+XXoOOXXOXXXXXXXooOXOXXXXOOOXXOXXXXXXooOXXXXOOooXXXXXOXXXXXooXXX",
"oXXooXXXOXXXXOXOoooXXXOoooOOXXXXXXXXOo.OXXXXOOooXOOXXXXXXXOooOOO",
".XXoOoOoOooOooOoOooooOXXOoOOoOooooOooooOoOOXXOOoooooooooooOooOOO",
".OXXXOOOOooXXXXXOOXXXXXXXOOXXOOoXXXXXOXXXXXXXXXXOXXXoooXOOOOXOXX",
".XXXXXXXXooXXXXXXXXXXXXXXXXXXXooXOXXXXXXXOXXXXXXXXXXOoOXXXXXXOXX",
"oXXOXXXXOo.XXXXXXXXXXXXXXXXXOOOoOXOXXXXXXXXXXXOXXXXXOoOXXXXXXXXX",
"oXXOoXXXOooXXXXXXXXXXXXXXOXXOOOoXXXXXXXXXXXXXOOOXXXXOoOXOXXXXXXX",
".ooOOXXXXOoO.oooOOOXOOooOOXXXXXOoo..OOOOOooooooOXXXXOO+++OOOOOOO",
".OOXXXXXXXXXOooo..ooOOOOXXXXXXXXOOOOO..OooooOXXXXXXXXXXO+++.++o.",
".XXXXXXXXOOXXOoooOoOOOOXXXXOOXOOXXXOOO.OOOXXXXXXXOXOXXXXXOXO+OOO",
".XXXXXXXXXXXXXXXXOOXXXXXXXXXXXXXXXXOOOOOXXXXXXXXXXXXXXOXXXXOOOOO",
"+XXXXXXXXXXXXXXXXOOXXXXXXXXXXXXXXXXXXOXOOXXXXXXXXXXXOXXXXXXXOOXX",
"+XXXOXXXXXXXXXXXOOoXXXXXOXXXXXXXXXXXXXXOOXXXXXXXXOXXXXXXXXXX+OXX",
"+XXOooo+++ooOOOoOOXXXOXXXOOOoOooOOOOOOXXOXOXXoOooooooo+++++OOOOX",
".XX++.+++++++ooOOXXXXXXXXOOoooooo.OoOOOXOXOXXoOooOoooo++OOOOOXOX",
"+XXXOXXX+.+OXXOXOXXXXXXXXXXXOOooOOXOOXXOXXXXOXXXXXXOoo+XOXXXXOXX",
"+XXXOOXXXO++XXXXXXXXXXXXXXXXXXOOOOXXOOXXXXXXXXXXXXXXOO+XXOXXXXXX",
".XXXXXXXXXO+XXXXXXXXXXXXXOOXXXXOoOOOOXXXXXXXXXXXXXXXXO+OXXXXXXXX",
".XX++OXXOXX+OOOOOXXXXXOOOOOOXXOOooOOOOOOXXXXXOOOOOOXXO.+OXOO+OXX",
" O+..OOXXXO.+oo..o.OOOoo.ooOOXXXoo.oOOo.OOXOoooOOOXXXo++++++++XX",
".O+.OOXXXOOOOOoooo.oOOo.OoOOOXXXOooOOO.ooOOOooooOOXXXOOO++++.+++",
".OOOXXXXOOXXXXOOoOoOoooOXOXXXXXXXXOXXOOOOOOOXOOOOOXXXXXXXXX++OO+",
".XXoOXXXXXXXOXOOOOXXXXXXooOXXXXXXXOXOOoOXXXXXOOOOXXXXXXXXXX++OOX",
".XOoO.OoO..OooOo.ooOoOXXOoooooooooOOO..++OOOOOOOOO++++++++++++++",
"oXXOOOXOOOoOOOOOOXXOOOXXXOOOOOooOOOXXXOOOOOXXOOOXOOOO++X+OOOOXXX",
"oXXXXXXXOOOXXOXXXXXXXXXXOXXXXXOoXOXXXXXXXXXXXXXXXXXXOOXXXXXXXXXX",
"OXXXXXXXOooOXXXOXXXXXXXXOOOOXOOoOOXXXXXXXXOOOXXXXXXX++OXXXOXOXOO",
"OXXOOXXXOoOXXXXXXXXXXXXXOOXXXXOOOOXXXXXXXXXXXXXXXXXX++XXXXXXXXXX",
"+XO.+XXXOooOXXXXXXXOXXXXOoOOOXOooOXOOOOXXXXXXO++OXOX++OXXXOXXXXX",
".OOOXXXXXXOOO++.++++oOooOXXXXXXXOOOoooooOO++OXXOXXOXXXO++++++O++",
".XXXXXXXXXOOXO+.+.++oOOXXXOXOXXXXOOooooo+++OXXXXXXXXXXXX+++++O++",
".XXXXXXXXXOXXOOOOOOOXXXXXXOXXXXXXXXXXOoOOOOXXXXXXXXXXXXXXOO++OOO",
".XXXXXXXXXXXXXXOOOOXXXXXXXXXOXXOOXXXXXXoXXXXXXXXXXXXXXXXXXXX+OXX",
".XXOXXXXXXXXXXXXOOOXXXOXXXXXOXXXXXXXXXXoXXXXXXXXXXXXXXXXXXOX+OXX",
"+XXXXXXXXXXXXXOOOOOXXXXXXOXOXXXOXXOOOXXOXXXXXOOXOOOOXOXOOXXXOXXX",
".XXo. oo...OO..OOXXXXXXXXooO+o.Oo.oooOOXXXXOXOOOOOO++++++O+++XXX",
".XXOoOXO...oOOoOXXXOXXXXOOOOO.O.ooOOOOOXOXXXOOXOOOOO.++O+O+O+XXX",
".XXOXXXXO.oOXOXXXXXXOXXXOXOOOOO.OOXOOXXXXOOOXXXOXOOO++OXXXOXXXX+",
".XXXXXXXXooXXXXXXXXXoOXXOOXXXXOoOXXXXXXXXOOOXXXXXXXXOOOXXXXXXXX+",
" XOOXXXXXooOoO++++++ooXXOOOOXXO..oO.ooOo+++OOOOXOOOOo.++++++++++",
"+X+.O++OOOooo++.++O+ooOOOoOOOOOOOoOoo.Oo+++OO++OOOOOOo+OO+++O+OO",
".o..o.ooXXXOXXO+OXXOOOOo..o+++OXOXXXoOXXXXXX++..+++OOOXXXO+OXXXX",
".XX..oOXXXXOOXXOOXXXOXOXo.oOOXXXOOXOOOOXXOXXX+.oOXXOXXXXXO++OXXX",
"+XXooOXXXXXXXXXOOXXXOXXOooOXXXXXOXXXXOOOXXXXXX+.OOOOXXXXXXOOOXXX",
".XO.OOOOOXXXXOOOO+OXXXXO.ooXXOOXXXXOOooOXXXXXO++OOOOXXXXXXO++XXO",
".O+..Ooo.....ooo.......Oo.oo.......OOO+.....O+..+++......+++... ",
" ..... ...XXXOooOooO. ..o...  .OXOOOO..+O+......... .OXXO++.+XO.",
"+OOoOOoo .XXXOoOOOOo..oOOXXOo..XOXXOXOO+X+..OXOOOOO..OXXXOOOXOX.",
"OXXXXXXX..XXXXXXXXXX.oXXXXXXX+ +XXXXXXXXXO.OXXXXXXX..OXXXXXXXOX.",
"XXXXXXXX..OOXOXXXXXO..OXXXXO++.+XXXXXXXXXO..XOXXXXX..XXXOXOXXXO.",
" X+OOOOX.oXO.. .  .oOOOO+O+XO+..O...  ...XOOXXX+OOX..OX... ...+O",
"... oo....o..   .oo..Oo....+.+..+.   .++.OOo... .....OO.  ..o.++",
" O.   .. .......oXOoOOoo    .+...... .XXOOOOo. . . ..o...  oX+OO",
"OXX. oo..oooo. .oXXXXXOOo..++O+O+++  .XXOOXXXO. .++O.oO..  .XOOX",
".XXO.oOOOXOOO.  .OXOXXXXX..+OO++OXO+...OXOXXXXO..+OOOOOX....O+XO",
" . ...... . ....   ...... .  ......... ....... . ....  .........",
" .o ........... ...  .. .. ...........   . .. . . .... .... .  .",
"                                            .                   "
};
