/* XPM */
static char *ruins_wood[] = {
/* columns rows colors chars-per-pixel */
"64 64 6 1 ",
"  c #A36E54",
". c #B48061",
"X c #855139",
"o c #6C3A26",
"O c #784730",
"+ c #FFFFFF",
/* pixels */
"        .   ....    .  XX  . ... ... ........  .         oo     ",
" ... ....           .  OX                          .   . OO     ",
" ... ....           .  OX                          .   . OO     ",
" ....              ..  OX  . ..                          oo     ",
"     ...   ..  .       XX        .. .  .        ...      XX     ",
"XXXooXXXXXXOoOOXXXXXXOOooXXXXOOOOOOXXXXXXXXOXOOOXOOOXOOOXooXXXXO",
"XXXooXXXXXXOoOOXXXXXXOOooXXXXOOOOOOXXXXXXXXOXOOOXOOOXOOOXooXXXXO",
"XXXXXoooXXXOOXXXoOOXXXXXXXXOXXXXXXXXXXXXoOOOX  OXXXXXXXXXXXXXXXX",
".... XXXX                    ..        XoXX                     ",
"    .XXX ...     ...                    O   .  .   .            ",
"    .XXX ...     ...                    O   .  .   .            ",
"X  . OOX                               XoXX    .       .   .    ",
".... XXX           .   .    .  .    ... o          .         ...",
"XXXOOOOOX  XXXXXX  XXXXXXXXXXXXX XXXXXXXoXXXXXXXXXXXX  X XXXXXXX",
"XXXOOOOOX  XXXXXX  XXXXXXXXXXXXX XXXXXXXoXXXXXXXXXXXX  X XXXXXXX",
"OOOOOoooOXXoOOOXOOOXXXXXOOOOXOOoOooOOOOXoXXOOOOoXOOOOOOOOOOoOOOo",
".  X        X   X   X           X    XX                  XX     ",
".......    .   .XXX..    ..         ... .        OOO            ",
".......    .   .XXX..    ..         ... .        OOO            ",
"    X           OXX      ..  ..  .. .            OOO            ",
" ...     ..     OXX        .     .. .  . ...     XXO       .    ",
"                XXX                      ..        X            ",
"                XXX                      ..        X            ",
"OOOOOooooooooooooooOOooooooXooooooooOOOooOOoOOOOooooOooOoOOOOOOO",
"oXXXXXX X  X   XXXX XXX  XXX XXXXOOXXXXXX   XXX XXXX XX X  X XX ",
"O       .                  .    XXX                             ",
"O       .                  .    XXX                             ",
"X  . ... .. .  .   .   .       .XOO .                           ",
"X  .                             OOX ..  ...                .   ",
"X      .       . ..  ..  ..    .XXXX.                  .        ",
"X      .       . ..  ..  ..    .XXXX.                  .        ",
"OXXXXXXXXXXXXOOXX  XXXXXXXXXXXXXXOOO XXXXXXXXXXXXXX XXX XOOXXXX ",
"OOOOOXXXXXXXXOOXOXXOOXXooXXXXXXXXXXOXOOXXOOXXXXXOXXXXXXXOooOOXXX",
"                       XX                               XXX     ",
"                       XX                               XXX     ",
"     ..                XX      .   . ..                 XXX     ",
"                       XX  X                         .. Xoo     ",
"       .        .   .  XX              . ..  .. .       Xoo     ",
"       .        .   .  XX              . ..  .. .       Xoo     ",
"                 XX XXX  XX X        XX          XX     X  X    ",
"ooooOooooooooooooooooooooooooooooooooooOoooooooooooooooooooXOooX",
"XXX XOOOX   X  XX   X  X XX  XX X    XXXoXXX XX X  X XX X  XXXXX",
"XXX XOOOX   X  XX   X  X XX  XX X    XXXoXXX XX X  X XX X  XXXXX",
".... XX          ...    .      .    .   O   ....... .  .     .. ",
"     ooOX                   .  . ..     oXX                 .   ",
"     XX    ..                    ... .. XXX .  .           .    ",
"     XX    ..                    ... .. XXX .  .           .    ",
"     XXX                   . ..         O                       ",
"OOOOXooOOXXXXXXXXXXOXXXXOOOOOOOXXXXOOXXXoooXXOOOXXXXOOOXXXXXXXXO",
"XOOOOOOOOXXOOOOOoOOXXXXXXXXXXOOOXXXXOOOOOXXOOOOXXOOoOXXXXXXXXXXX",
"XOOOOOOOOXXOOOOOoOOXXXXXXXXXXOOOXXXXOOOOOXXOOOOXXOOoOXXXXXXXXXXX",
"   ..   .       X   .   ....     ...    .    ..  XXO           .",
" ..             OXX                                o     ..     ",
"     ..         o          .                .    XXo ..    ..   ",
"     ..         o          .                .    XXo ..    ..   ",
"...             OXX.                             XXo ..     ... ",
" XXXX    XX  XX OXX X  X XX  XX  XX X    XX XXX  XXoXXXXXXXOXXX ",
"oOOOOOOoOOOooooOoooOoooOoOOooOOOOooooOOoOOOoOoooOXXoXOOOXXXoOooO",
"oOOOOOOoOOOooooOoooOoooOoOOooOOOOooooOOoOOOoOoooOXXoXOOOXXXoOooO",
"X                      .         XX                  XX         ",
"X      . ..    .            .    oo  ..          ..      ..     ",
"X  .                   .         oo                         .   ",
"X  .                   .         oo                         .   ",
"X        ..      ..              oo    .    .      .           ."
};
